X:1
T:7
T:7
T:Études enfantines op. 37
T:Henry Lemoine
C:Henry Lemoine
%%score { 1 | ( 2 3 4 ) }
L:1/8
Q:1/4=139
M:3/4
K:G
V:1 treble nm="Piano" snm="Pno."
V:2 bass 
V:3 bass 
V:4 bass 
V:1
!p!"_legato\n""^Allegretto" (!1!d!5!b !2!f!3!g ag | !1!d!5!b !2!f!3!g ag) | %2
"_cresc." (!1!e!5!c' !2!^g!3!a ba | !1!e!5!c' !2!^g!3!a ba) | (!2!f!1!=g ab !4!c'b | %5
 !2!a!3!b !1!c'd' e'f' |!f! !5!g'!2!^c' !4!e'!3!d' !2!b!1!g |!>(! !3!^ga ba !2!f!>)!!^!d-) | %8
!p! (!1!d!5!b !2!f!3!g ag | !1!d!5!b !2!f!3!g ag | !1!e!5!c' !2!^g!3!a ba | %11
"_cresc." !1!e!5!c' !2!^g!3!a ba | !2!f!1!=g ab !4!c'b | !2!a!3!b !1!c'd' e'f' | %14
!f! !5!g'!2!^c' !4!e'!3!d' !2!b!1!g) | z6 ||!f! .A z (!5!f!2!^c !4!ed | .A) z (!5!f^c ed | %18
 .A) z (!5!g!2!^d fe | .A) z (g^d fe | .A) z (!5!f!2!^c ed | .B) z (!5!g!2!^d fe) | %22
 .A z (!5!f!2!^c ed | !4!d^c BA)({/!4!c} !3!BA | .!1!A) z (!5!f!2!^c ed | .A) z (!5!f^c ed | %26
 .A) z (!5!g!2!^d fe | .A) z (!5!g^d fe | .A) z (!5!f!2!^c ed | .B) z (!5!g!2!^d fe | %30
 .A) z!>(! (e^B ^c!>)!A | .d) z!<(! (d^c dc |{/e} d^c dc d!<)!c |!>(!{/e} d^c dc d!>)!c | %34
!p! (!1!d)!5!b !2!f!3!g ag | !1!d!5!b !2!f!3!g ag) |"_cresc." (!1!e!5!c' !2!^g!3!a ba | %37
 !1!e!5!c' !2!^g!3!a ba) | (!2!f!1!=g ab !4!c'b | !2!a!3!b !1!c'd' e'f' | %40
!f! !5!g'!2!^c' !4!e'!3!d' !2!b!1!g |!>(! !3!^ga ba !2!f!>)!!^!d-) |!p! (!1!d!5!b !2!f!3!g ag | %43
 !1!d!5!b !2!f!3!g ag | !1!e!5!c' !2!^g!3!a ba |"_cresc." !1!e!5!c' !2!^g!3!a ba | %46
 !2!f!1!=g ab !4!c'b | !2!a!3!b !1!c'd' e'f' |!f! !5!g'!2!^c' !4!e'!3!d' !2!b!1!g) | %49
 z (!3!^g !5!b!4!a !2!f!1!d | !5!=g!2!^c !4!e!3!d !2!B!1!G) | z!p! (!3!^G BA FD | =G) z z2 z2 | %53
!f! !fermata![B,DG]6 |] %54
V:2
 [G,B,D]4 [G,B,D]2 | [G,B,D]4 [G,B,D]2 | [G,CE]4 [G,CE]2 | [G,CE]4 [G,CE]2 | [G,CD]4 [G,CD]2 | %5
 [G,CD]4 [G,CD]2 | [G,B,D]4 [G,B,D]2 | [G,CD]4 [G,CD]2 | [G,B,D]4 [G,B,D]2 | [G,B,D]4 [G,B,D]2 | %10
 [G,CE]4 [G,CE]2 | [G,CE]4 [G,CE]2 | [G,CD]4 [G,CD]2 | [G,CD]4 [G,CD]2 | [G,B,D]4 [G,B,D]2 | %15
 [G,B,D]4 z2 || [D,F,A,]6- | [D,F,A,]2 [D,F,A,]2 [D,F,A,]2 | [^C,G,A,]6- | %19
 [C,G,A,]2 [^C,G,A,]2 [C,G,A,]2 | .[D,F,A,] z z4 | .[G,B,E] z z4 | .[A,DF] z z4 | [A,EG]4 z2 | %24
 [D,F,A,]6- | [D,F,A,]2 [D,F,A,]2 [D,F,A,]2 | [^C,G,A,]6- | [C,G,A,]2 [^C,G,A,]2 [C,G,A,]2 | %28
 .[D,F,A,] z4 z | .[G,B,E] z z4 | .[A,EG] z z4 | .[DF] z z4 | z6 | z6 | [G,B,D]4 [G,B,D]2 | %35
 [G,B,D]4 [G,B,D]2 | [G,CE]4 [G,CE]2 | [G,CE]4 [G,CE]2 | [G,CD]4 [G,CD]2 | [G,CD]4 [G,CD]2 | %40
 [G,B,D]4 [G,B,D]2 | [G,CD]4 [G,CD]2 | [G,B,D]4 [G,B,D]2 | [G,B,D]4 [G,B,D]2 | [G,CE]4 [G,CE]2 | %45
 [G,CE]4 [G,CE]2 | [G,CD]4 [G,CD]2 | [G,CD]4 [G,CD]2 | .[G,B,D] z z4 | ((!>!C6 | .B,)) z z4 | %51
 ((!>!C6 | .B,)) z z2 z2 | !fermata![G,,D,]6 |] %54
V:3
 x6 | x6 | x6 | x6 | x6 | x6 | x6 | x6 | x6 | x6 | x6 | x6 | x6 | x6 | x6 | x6 || x6 | x6 | x6 | %19
 x6 | x6 | x6 | x6 | x6 | x6 | x6 | x6 | x6 | x6 | x6 | x6 | x6 | x6 | x6 | x6 | x6 | x6 | x6 | %38
 x6 | x6 | x6 | x6 | x6 | x6 | x6 | x6 | x6 | x6 | x6 | (A,6 | G,) x5 | (A,6 | G,) x5 | x6 |] %54
V:4
 x6 | x6 | x6 | x6 | x6 | x6 | x6 | x6 | x6 | x6 | x6 | x6 | x6 | x6 | x6 | x6 || x6 | x6 | x6 | %19
 x6 | x6 | x6 | x6 | x6 | x6 | x6 | x6 | x6 | x6 | x6 | x6 | x6 | x6 | x6 | x6 | x6 | x6 | x6 | %38
 x6 | x6 | x6 | x6 | x6 | x6 | x6 | x6 | x6 | x6 | x6 | D,6 | x6 | D,6 | x6 | x6 |] %54

